X: 5
T: Charlie Mulvihill's
R: reel
M: 4/4
L: 1/8
K: Dmaj
|:AF F2 G3B|AF F2 EGFE|D2 FA dfec|dBAF E2 dB|
AF F2 G3B|AF F2 EGFE|D2 FA dfec|dBAF D2:|
|:de|f3a g2 fg|afdf eB B2|f3e dfec|dBAF E2 fg|
af f2 bf f2|afdf eB B2|f3e dfec|dBAF D2:|


Tune 2301	Setting 25223

